my-app/src/app/media/pesquisas.svg

<svg width="43" height="43" viewBox="0 0 43 43" fill="none" xmlns="http://www.w3.org/2000/svg">
<path d="M20.0928 25.0862C19.6696 24.4882 19.7892 24.8194 19.7892 9.44531C17.7121 9.70639 15.7147 10.4075 13.9301 11.5018C12.1455 12.596 10.6148 14.0584 9.44014 15.7911C8.26551 17.5239 7.47395 19.4873 7.1183 21.5502C6.76265 23.6132 6.85108 25.7283 7.37769 27.7543H17.9491C18.2704 27.7579 18.5851 27.8455 18.862 28.0084C19.139 28.1714 19.3684 28.404 19.5275 28.6831C19.6866 28.9623 19.7699 29.2782 19.769 29.5995C19.7681 29.9208 19.683 30.2363 19.5224 30.5145L17.029 34.7007V38.0589C19.3208 38.8139 21.7629 38.9939 24.1406 38.5832C26.5183 38.1725 28.7585 37.1836 30.6642 35.7036C15.9986 21.038 21.2521 26.2455 20.0928 25.0862Z" fill="white"/>
<path d="M32.3679 14.8739C29.1017 17.3212 28.8993 17.634 28.0712 17.634C27.5832 17.634 27.1152 17.4402 26.7701 17.0951C26.425 16.75 26.2311 16.282 26.2311 15.7939V6.26219C24.7294 5.86903 23.1832 5.67112 21.6309 5.67336V24.0744H40.0319C40.0392 20.8433 39.1883 17.6683 37.5662 14.8739H32.3679Z" fill="white"/>
<path d="M33.3409 35.7867C35.9974 33.1298 37.6715 29.6485 38.0884 25.9146H23.4688L33.3409 35.7867Z" fill="white"/>
<path d="M3.22891 29.5942C2.49687 29.5942 1.79481 29.885 1.27718 30.4027C0.759551 30.9203 0.46875 31.6224 0.46875 32.3544V39.7148C0.46875 40.4468 0.759551 41.1489 1.27718 41.6665C1.79481 42.1842 2.49687 42.475 3.22891 42.475H12.4294C13.1615 42.475 13.8635 42.1842 14.3811 41.6665C14.8988 41.1489 15.1896 40.4468 15.1896 39.7148V34.1945L17.9497 29.5942H3.22891ZM11.5094 38.7948H4.14896C3.90494 38.7948 3.67093 38.6978 3.49838 38.5253C3.32584 38.3527 3.22891 38.1187 3.22891 37.8747C3.22891 37.6307 3.32584 37.3967 3.49838 37.2241C3.67093 37.0516 3.90494 36.9547 4.14896 36.9547H11.5094C11.7534 36.9547 11.9874 37.0516 12.1599 37.2241C12.3325 37.3967 12.4294 37.6307 12.4294 37.8747C12.4294 38.1187 12.3325 38.3527 12.1599 38.5253C11.9874 38.6978 11.7534 38.7948 11.5094 38.7948ZM11.5094 35.1145H4.14896C3.90494 35.1145 3.67093 35.0176 3.49838 34.8451C3.32584 34.6725 3.22891 34.4385 3.22891 34.1945C3.22891 33.9505 3.32584 33.7165 3.49838 33.5439C3.67093 33.3714 3.90494 33.2744 4.14896 33.2744H11.5094C11.7534 33.2744 11.9874 33.3714 12.1599 33.5439C12.3325 33.7165 12.4294 33.9505 12.4294 34.1945C12.4294 34.4385 12.3325 34.6725 12.1599 34.8451C11.9874 35.0176 11.7534 35.1145 11.5094 35.1145Z" fill="white"/>
<path d="M40.9491 0.152344H29.9085C29.4204 0.152344 28.9524 0.346211 28.6073 0.691298C28.2622 1.03638 28.0684 1.50442 28.0684 1.99245V15.7932L31.7486 13.0331H40.9491C41.4371 13.0331 41.9052 12.8392 42.2502 12.4941C42.5953 12.149 42.7892 11.681 42.7892 11.193V1.99245C42.7892 1.50442 42.5953 1.03638 42.2502 0.691298C41.9052 0.346211 41.4371 0.152344 40.9491 0.152344ZM32.6686 9.35286C32.6686 9.59688 32.5717 9.83089 32.3991 10.0034C32.2266 10.176 31.9926 10.2729 31.7486 10.2729C31.5046 10.2729 31.2705 10.176 31.098 10.0034C30.9254 9.83089 30.8285 9.59688 30.8285 9.35286V6.59271C30.8285 6.34869 30.9254 6.11468 31.098 5.94213C31.2705 5.76959 31.5046 5.67266 31.7486 5.67266C31.9926 5.67266 32.2266 5.76959 32.3991 5.94213C32.5717 6.11468 32.6686 6.34869 32.6686 6.59271V9.35286ZM36.3488 9.35286C36.3488 9.59688 36.2519 9.83089 36.0794 10.0034C35.9068 10.176 35.6728 10.2729 35.4288 10.2729C35.1848 10.2729 34.9507 10.176 34.7782 10.0034C34.6057 9.83089 34.5087 9.59688 34.5087 9.35286V4.7526C34.5087 4.50859 34.6057 4.27457 34.7782 4.10203C34.9507 3.92949 35.1848 3.83255 35.4288 3.83255C35.6728 3.83255 35.9068 3.92949 36.0794 4.10203C36.2519 4.27457 36.3488 4.50859 36.3488 4.7526V9.35286ZM40.029 9.35286C40.029 9.59688 39.9321 9.83089 39.7596 10.0034C39.587 10.176 39.353 10.2729 39.109 10.2729C38.865 10.2729 38.6309 10.176 38.4584 10.0034C38.2859 9.83089 38.1889 9.59688 38.1889 9.35286V3.83255C38.1889 3.58854 38.2859 3.35452 38.4584 3.18198C38.6309 3.00943 38.865 2.9125 39.109 2.9125C39.353 2.9125 39.587 3.00943 39.7596 3.18198C39.9321 3.35452 40.029 3.58854 40.029 3.83255V9.35286Z" fill="white"/>
</svg>

<svg xmlns="http://www.w3.org/2000/svg" width="43" height="43" fill="none"><path fill="#fff" d="M20.093 25.086c-.423-.598-.304-.267-.304-15.64A14.72 14.72 0 0 0 7.378 27.753h10.571a1.84 1.84 0 0 1 1.573 2.76l-2.493 4.187v3.358a14.72 14.72 0 0 0 13.635-2.355C16 21.038 21.252 26.246 20.093 25.086"/><path fill="#fff" d="M32.368 14.874c-3.266 2.447-3.469 2.76-4.297 2.76a1.84 1.84 0 0 1-1.84-1.84V6.262a18 18 0 0 0-4.6-.589v18.401h18.4a18.24 18.24 0 0 0-2.465-9.2zM33.34 35.787a16.56 16.56 0 0 0 4.748-9.872h-14.62zM3.229 29.594a2.76 2.76 0 0 0-2.76 2.76v7.36a2.76 2.76 0 0 0 2.76 2.761h9.2a2.76 2.76 0 0 0 2.76-2.76v-5.52l2.76-4.6zm8.28 9.2H4.15a.92.92 0 0 1 0-1.84h7.36a.92.92 0 1 1 0 1.84m0-3.68H4.15a.92.92 0 1 1 0-1.84h7.36a.92.92 0 0 1 0 1.84"/><path fill="#fff" d="M40.95.152H29.907a1.84 1.84 0 0 0-1.84 1.84v13.801l3.68-2.76h9.201a1.84 1.84 0 0 0 1.84-1.84v-9.2a1.84 1.84 0 0 0-1.84-1.84m-8.281 9.2a.92.92 0 1 1-1.84 0v-2.76a.92.92 0 1 1 1.84 0zm3.68 0a.92.92 0 1 1-1.84 0v-4.6a.92.92 0 0 1 1.84 0zm3.68 0a.92.92 0 1 1-1.84 0v-5.52a.92.92 0 0 1 1.84 0z"/></svg>
